assets/images/svg/firebase.svg

<?xml version="1.0" encoding="UTF-8" standalone="no" ?>
<svg width="256px" height="320px" viewBox="0 0 256 320" version="1.1" xmlns="http://www.w3.org/2000/svg" xmlns:xlink="http://www.w3.org/1999/xlink" preserveAspectRatio="xMidYMid">
    <g>
        <path d="M81.5505068,2.1307107 C33.676101,8.05674981 4.08585623,22.1327574 0.556866651,40.8696945 C-0.0823465585,43.9059572 -0.0823465585,60.8717411 0.223943106,78.6365415 C0.876473257,105.217157 1.34256622,111.942214 3.75293269,116.243585 C6.30978552,121.210804 6.30978552,122.009821 3.75293269,128.72156 C1.34256622,134.967205 1.18276292,139.787938 1.98177942,165.68939 C2.63430957,182.029278 3.92605294,197.863122 5.04467605,200.752898 C6.45627188,204.761298 6.45627188,206.985227 5.04467605,210.207926 C2.63430957,215.321632 2.46118933,260.466065 4.71175251,274.049346 C5.65725537,280.454795 7.74801524,285.435332 10.784278,289.270611 C25.0467227,307.035411 62.8135697,317.595746 118.3319,319.353582 C187.313659,321.604145 239.968847,308.633444 252.460139,286.3542 C255.816008,280.614599 255.975811,278.044428 255.975811,248.760473 C255.975811,223.964327 255.496401,216.107333 253.418959,211.15343 C251.341516,205.879921 251.341516,204.122085 252.939548,201.072505 C254.391095,198.355849 254.870505,189.087257 254.564215,166.981134 C254.231292,135.286812 253.765199,130.6392 250.236209,125.525494 C248.465056,122.955323 248.624859,121.690215 250.542498,117.681815 C252.619941,113.846536 253.112669,106.801874 252.939548,78.7963448 C252.793062,58.9407846 251.980728,42.4677275 250.862105,39.4314648 C246.5341,26.1544737 227.331069,13.9827889 201.256497,7.7371432 C169.229252,0.21307107 117.386397,-2.17066152 81.5505068,2.1307107 L81.5505068,2.1307107 L81.5505068,2.1307107 Z" fill="#0A0B09"></path>
        <path d="M33.5296146,228.771744 C47.2993325,238.839351 115.641878,245.577724 161.891617,241.569325 C187.326976,239.318762 209.259979,235.163876 219.820314,230.52958 C226.878293,227.333514 227.184583,226.840788 227.184583,220.768262 C227.184583,216.280452 227.823796,214.189692 229.421829,214.189692 C234.868458,214.189692 235.667475,218.517699 235.361185,247.974774 C235.188065,263.968421 234.562169,277.911259 234.242562,279.016565 C232.950818,282.212631 219.340904,288.937687 207.968236,291.84078 C188.618719,296.954486 170.507678,299.191732 141.556646,300.150552 C88.0891253,301.921705 37.8309869,293.75842 24.2477062,281.107325 C20.8785199,277.751456 20.7053996,276.64615 20.7053996,248.77379 C20.7053996,221.101185 20.8785199,219.809442 24.4075095,216.120649 L27.9231822,212.285369 L28.7221987,219.156911 C29.3614118,223.964327 30.6398382,226.680984 33.5162977,228.771744 L33.5296146,228.771744 L33.5296146,228.771744 Z" fill="#F6CF54"></path>
        <path d="M28.7355156,137.217769 C28.7355156,143.769704 31.9315816,146.48636 44.4095562,150.161836 C89.540672,163.771751 191.335376,162.013915 220.472844,147.125574 C226.398883,144.089311 227.184583,143.130491 227.184583,138.176589 C227.184583,132.090746 228.782616,131.131926 232.604578,135.140326 C235.667475,138.176589 235.520989,135.459933 235.174748,168.592484 L235.028261,195.798996 L230.380649,200.127002 C220.472844,209.249107 186.048549,216.440255 143.953696,218.371212 C91.7779182,220.768262 32.0647511,210.54085 22.9559629,197.570149 C21.1848095,194.999979 20.7053996,188.11512 20.7053996,166.355237 C20.7053996,142.664398 21.0250063,138.030102 23.4087389,135.47325 C27.1241656,131.318364 28.7221987,131.957577 28.7221987,137.231086 L28.7355156,137.217769 L28.7355156,137.217769 Z" fill="#F6CF54"></path>
        <path d="M88.9147757,17.178855 C88.4353658,17.9778715 97.3976677,18.1376748 109.409549,17.6582649 C127.187667,17.0057347 174.049985,19.7357078 172.465269,21.3337409 C172.145662,21.6533474 164.92788,22.6254842 156.298501,23.584304 C147.482685,24.5431238 138.999794,26.1544737 137.095471,27.0999767 C133.886088,28.857813 133.886088,29.0176162 136.602744,31.0950591 C139.346035,33.0260157 139.172914,33.185819 135.004711,34.1446389 C121.874207,36.861295 113.391315,40.2304812 110.368369,44.0657606 C102.684494,53.8270789 109.409549,63.5883973 125.895923,67.1040699 C138.373898,69.6742397 187.673216,68.0628897 201.269814,64.7070204 C216.317958,60.8717411 224.001833,56.543735 224.001833,51.7496359 C224.001833,45.1977005 214.360367,40.3769677 191.188889,35.5828686 C178.844084,33.185819 186.714396,32.6930922 202.055514,35.1034587 C217.276778,37.5005082 229.608267,42.1481209 233.590032,47.2751436 C236.479809,51.1104228 236.772781,53.6672756 236.772781,81.5130009 C236.772781,115.923979 237.092387,115.124962 221.431664,122.329428 C198.699644,133.062883 161.718497,137.057965 97.5308371,135.926025 C85.3857862,135.606419 84.4136493,135.459933 87.7695188,133.528976 C91.1253881,131.611337 90.0200819,131.278413 76.5832875,130.479396 C57.8596674,129.37409 41.5197798,124.726478 33.8492212,118.653952 C24.5539958,111.276366 18.6279567,97.9993749 17.8555741,82.3253344 C17.0565576,67.4369934 19.9197001,50.3114063 22.9692798,51.4300294 C24.0745859,51.8961224 26.4849524,49.1794662 28.7355156,45.1977005 C35.1276476,33.0260157 49.0571688,24.7029271 71.9623087,18.9366913 C85.5589064,15.580822 90.1798852,15.1014121 88.9147757,17.178855 L88.9147757,17.178855 L88.9147757,17.178855 Z" fill="#F6CF54"></path>
    </g>
</svg>

<svg width="256" height="320" viewBox="0 0 256 320" xmlns="http://www.w3.org/2000/svg" preserveAspectRatio="xMidYMid"><path d="M81.55 2.13C33.677 8.058 4.087 22.134.558 40.87c-.64 3.036-.64 20.002-.333 37.767.652 26.58 1.12 33.305 3.53 37.607 2.556 4.967 2.556 5.766 0 12.478-2.41 6.245-2.57 11.066-1.772 36.967.652 16.34 1.944 32.173 3.063 35.063 1.41 4.008 1.41 6.232 0 9.455-2.41 5.114-2.584 50.258-.333 63.84.945 6.407 3.036 11.387 6.072 15.223 14.263 17.765 52.03 28.326 107.548 30.084 68.982 2.25 121.637-10.72 134.128-33 3.356-5.74 3.516-8.31 3.516-37.594 0-24.796-.48-32.653-2.557-37.607-2.078-5.273-2.078-7.03-.48-10.08 1.45-2.717 1.93-11.986 1.624-34.092-.333-31.693-.8-36.34-4.328-41.455-1.77-2.57-1.61-3.835.306-7.843 2.078-3.835 2.57-10.88 2.398-38.886-.147-19.855-.96-36.328-2.078-39.365-4.328-13.276-23.53-25.447-49.606-31.693C169.23.213 117.386-2.17 81.55 2.13z" fill="#0A0B09"/><path d="M33.53 228.772c13.77 10.067 82.112 16.806 128.362 12.797 25.435-2.25 47.368-6.406 57.928-11.04 7.058-3.196 7.365-3.69 7.365-9.762 0-4.488.64-6.578 2.237-6.578 5.446 0 6.245 4.328 5.94 33.785-.174 15.993-.8 29.936-1.12 31.042-1.29 3.196-14.9 9.92-26.274 12.824-19.35 5.114-37.46 7.352-66.41 8.31-53.47 1.772-103.727-6.392-117.31-19.043-3.37-3.356-3.543-4.46-3.543-32.333 0-27.673.174-28.965 3.703-32.653l3.515-3.835.8 6.872c.638 4.807 1.917 7.524 4.793 9.615h.014z" fill="#F6CF54"/><path d="M28.736 137.218c0 6.552 3.196 9.268 15.674 12.944 45.13 13.61 146.925 11.852 176.063-3.036 5.926-3.037 6.712-3.996 6.712-8.95 0-6.085 1.598-7.044 5.42-3.036 3.062 3.037 2.916.32 2.57 33.452l-.147 27.207-4.647 4.327c-9.907 9.122-44.33 16.313-86.426 18.244-52.176 2.398-111.89-7.83-120.998-20.8-1.77-2.57-2.25-9.455-2.25-31.215 0-23.69.32-28.325 2.703-30.882 3.714-4.155 5.312-3.515 5.312 1.758l.014-.012z" fill="#F6CF54"/><path d="M88.915 17.18c-.48.798 8.483.958 20.495.478 17.778-.652 64.64 2.078 63.055 3.676-.32.32-7.537 1.29-16.166 2.25-8.817.96-17.3 2.57-19.205 3.516-3.21 1.758-3.21 1.918-.492 3.995 2.743 1.93 2.57 2.09-1.598 3.05-13.13 2.716-21.614 6.085-24.637 9.92-7.684 9.762-.958 19.523 15.528 23.04 12.478 2.57 61.777.958 75.374-2.398 15.048-3.835 22.732-8.163 22.732-12.957 0-6.552-9.642-11.373-32.813-16.167-12.346-2.397-4.476-2.89 10.866-.48 15.22 2.398 27.552 7.045 31.534 12.172 2.89 3.835 3.183 6.392 3.183 34.238 0 34.41.32 33.612-15.34 40.816-22.733 10.733-59.715 14.728-123.902 13.596-12.144-.32-13.116-.466-9.76-2.397 3.355-1.92 2.25-2.252-11.187-3.05-18.723-1.106-35.063-5.754-42.734-11.826-9.296-7.378-15.222-20.655-15.994-36.33-.8-14.887 2.064-32.013 5.113-30.894 1.105.466 3.515-2.25 5.766-6.232 6.392-12.172 20.32-20.495 43.226-26.26C85.56 15.58 90.18 15.1 88.915 17.177z" fill="#F6CF54"/></svg>
